X: 2
T: Jamesy Gannon's Barndance No. 1
T: Lynch's Barndance No. 1
S: Michael Gorman 
N: the variations given for the A-part, bars 5 - 7,  are not from the playing of Michael Gorman
M: 4/4
L: 1/8
R: barndance
K: G Major
|: d>c |\
B2 B2 B>GB>d | c2 c>B c2 e2 | d>gf>e d>cB>A | G>FG>A B<GD>G |
B2 (3BcA BG (3Bcd | c2 c>B c3 e | d2 (3gfe d2 (3cBA | G2 g2 g2 :|
|: d>g |\
b2 b2 b2 a>g | f>ef>g a2 b2 | c'2 c'2 c'>ef>a | g>fg>a b>gd>g |
b2 b2 b2 a>g | f>ef>g a2 b2 | c'2 c'2 c'>ef>a | g2 g>f g2 :|
